svg/300/outlined/radar-fill.svg

<svg xmlns="http://www.w3.org/2000/svg" width="48" height="48" viewBox="0 -960 960 960"><path d="M480.067-100.001q-78.836 0-148.204-29.92-69.369-29.92-120.682-81.21-51.314-51.291-81.247-120.629-29.933-69.337-29.933-148.173t29.92-148.204q29.92-69.369 81.21-120.682 51.291-51.314 120.629-81.247 69.337-29.933 148.173-29.933t148.204 29.92q69.369 29.92 120.682 81.21 51.314 51.291 81.247 120.629 29.933 69.337 29.933 148.173t-29.92 148.204q-29.92 69.369-81.21 120.682-51.291 51.314-120.629 81.247-69.337 29.933-148.173 29.933ZM480-145.385q63.578 0 119.751-21.654 56.172-21.654 100.788-60.808l-82.001-81.001q-28.692 22.616-63.818 35.731-35.126 13.116-74.72 13.116-91.666 0-155.832-64.14-64.167-64.14-64.167-155.768 0-91.629 64.14-155.859 64.14-64.231 155.768-64.231 91.629 0 155.859 64.167Q699.999-571.666 699.999-480q0 39.692-13.116 74.718-13.115 35.025-35.346 63.82l81.001 81.001q38.538-44.616 60.308-100.193Q814.615-416.231 814.615-480q0-139.692-97.461-237.154Q619.692-814.615 480-814.615t-237.154 97.461Q145.385-619.692 145.385-480t97.461 237.154Q340.308-145.385 480-145.385Zm0-160q30.154 0 57.231-9.269 27.077-9.27 49.077-26.424l-84.001-83.385q-4.961 2.103-10.806 3.282-5.845 1.18-11.421 1.18-24.618 0-42.348-17.731-17.731-17.73-17.731-42.268t17.731-42.268q17.73-17.731 42.268-17.731t42.268 17.731q17.731 17.73 17.731 42.191 0 5.678-1.488 11.87-1.487 6.193-3.589 11.745l84 82.77q17.154-22.385 26.424-49.372 9.269-26.986 9.269-56.936 0-72.692-50.961-123.654Q552.692-654.615 480-654.615t-123.654 50.961Q305.385-552.692 305.385-480t50.961 123.654Q407.308-305.385 480-305.385Z"/></svg>

<svg xmlns="http://www.w3.org/2000/svg" width="48" height="48" viewBox="0 -960 960 960"><path d="M480.07-100q-78.84 0-148.21-29.92t-120.68-81.21q-51.31-51.29-81.25-120.63Q100-401.1 100-479.93q0-78.84 29.92-148.21t81.21-120.68q51.29-51.31 120.63-81.25Q401.1-860 479.93-860q78.84 0 148.21 29.92t120.68 81.21q51.31 51.29 81.25 120.63Q860-558.9 860-480.07q0 78.84-29.92 148.21t-81.21 120.68q-51.29 51.31-120.63 81.25Q558.9-100 480.07-100Zm-.07-45.39q63.58 0 119.75-21.65t100.79-60.81l-82-81q-28.69 22.62-63.82 35.73Q519.59-260 480-260q-91.67 0-155.83-64.14Q260-388.28 260-479.91q0-91.63 64.14-155.86Q388.28-700 479.91-700q91.63 0 155.86 64.17Q700-571.67 700-480q0 39.69-13.12 74.72-13.11 35.02-35.34 63.82l81 81q38.54-44.62 60.31-100.19 21.76-55.58 21.76-119.35 0-139.69-97.46-237.15-97.46-97.46-237.15-97.46t-237.15 97.46Q145.39-619.69 145.39-480t97.46 237.15q97.46 97.46 237.15 97.46Zm0-160q30.15 0 57.23-9.26 27.08-9.27 49.08-26.43l-84-83.38q-4.96 2.1-10.81 3.28-5.84 1.18-11.42 1.18-24.62 0-42.35-17.73T420-480q0-24.54 17.73-42.27Q455.46-540 480-540q24.54 0 42.27 17.73Q540-504.54 540-480.08q0 5.68-1.49 11.87-1.49 6.2-3.59 11.75l84 82.77q17.16-22.39 26.43-49.37 9.26-26.99 9.26-56.94 0-72.69-50.96-123.65-50.96-50.96-123.65-50.96t-123.65 50.96Q305.39-552.69 305.39-480t50.96 123.65q50.96 50.96 123.65 50.96Z"/></svg>
